eladmin-web/src/assets/icons/svg/anq.svg

<svg xmlns="http://www.w3.org/2000/svg" xmlns:xlink="http://www.w3.org/1999/xlink" width="200" height="200" class="icon" p-id="6244" t="1553935360914" version="1.1" viewBox="0 0 1024 1024"><defs><style type="text/css"/></defs><path fill="#8a8a8a" d="M957.217391 86.372174C957.217391 86.372174 957.217391 608.211478 957.217391 608.211478 957.217391 639.510261 949.782261 670.630957 934.956522 701.573565 920.086261 732.605217 900.674783 762.568348 876.633043 791.685565 852.591304 820.758261 825.121391 848.317217 794.267826 874.273391 763.369739 900.274087 732.070957 923.425391 700.326957 943.727304 668.538435 964.073739 637.68487 980.992 607.721739 994.437565 577.758609 1007.88313 551.490783 1017.09913 528.918261 1022.130087 528.918261 1022.130087 518.233043 1024 518.233043 1024 518.233043 1024 508.438261 1022.130087 508.438261 1022.130087 485.286957 1017.09913 458.440348 1007.88313 427.853913 994.437565 397.267478 980.992 365.523478 964.073739 332.577391 943.727304 299.631304 923.425391 267.308522 900.274087 235.52 874.273391 203.776 848.317217 175.415652 820.758261 150.483478 791.685565 125.551304 762.568348 105.382957 732.605217 89.978435 701.573565 74.48487 670.630957 66.782609 639.510261 66.782609 608.211478 66.782609 608.211478 66.782609 86.372174 66.782609 86.372174 66.782609 86.372174 103.290435 80.717913 103.290435 80.717913 103.290435 80.717913 512.890435 0 512.890435 0 512.890435 0 930.504348 80.717913 930.504348 80.717913 930.504348 80.717913 957.217391 86.372174 957.217391 86.372174 957.217391 86.372174 957.217391 86.372174 957.217391 86.372174ZM513.024 75.553391C513.024 75.553391 508.082087 74.529391 508.082087 74.529391 508.082087 74.529391 156.538435 137.527652 156.538435 137.527652 156.538435 137.527652 156.538435 466.765913 156.538435 466.765913 156.538435 466.765913 513.024 466.765913 513.024 466.765913 513.024 466.765913 513.024 75.553391 513.024 75.553391 513.024 75.553391 513.024 75.553391 513.024 75.553391ZM867.461565 466.765913C867.461565 466.765913 513.024 466.765913 513.024 466.765913 513.024 466.765913 513.024 935.401739 513.024 935.401739 535.81913 929.881043 560.617739 921.466435 587.419826 910.113391 614.177391 898.760348 640.623304 885.359304 666.713043 869.865739 692.847304 854.372174 717.957565 837.186783 742.13287 818.265043 766.308174 799.343304 787.634087 778.99687 806.288696 757.314783 824.898783 735.677217 839.724522 713.149217 850.810435 689.730783 861.94087 666.35687 867.461565 642.582261 867.461565 618.496 867.461565 618.496 867.461565 466.765913 867.461565 466.765913 867.461565 466.765913 867.461565 466.765913 867.461565 466.765913Z" p-id="6245"/></svg>

<svg xmlns="http://www.w3.org/2000/svg" width="200" height="200" class="icon" viewBox="0 0 1024 1024"><defs><style/></defs><path d="M957.217 86.372v521.84c0 31.298-7.435 62.419-22.26 93.362-14.87 31.031-34.282 60.994-58.324 90.112-24.042 29.072-51.512 56.631-82.365 82.587-30.898 26.001-62.197 49.152-93.941 69.454-31.789 20.347-62.642 37.265-92.605 50.71-29.963 13.446-56.231 22.662-78.804 27.693l-10.685 1.87-9.795-1.87c-23.151-5.03-49.998-14.247-80.584-27.692-30.587-13.446-62.33-30.364-95.277-50.71-32.946-20.303-65.268-43.454-97.057-69.455-31.744-25.956-60.104-53.515-85.037-82.587-24.932-29.118-45.1-59.08-60.505-90.112-15.493-30.943-23.195-62.064-23.195-93.363V86.372l36.507-5.654L512.89 0l417.614 80.718 26.713 5.654zM513.024 75.553l-4.942-1.024-351.544 62.999v329.238h356.486V75.553zm354.438 391.213H513.024v468.636c22.795-5.521 47.594-13.936 74.396-25.289 26.757-11.353 53.203-24.754 79.293-40.247 26.134-15.494 51.245-32.68 75.42-51.601 24.175-18.922 45.501-39.268 64.156-60.95 18.61-21.638 33.436-44.166 44.521-67.584 11.13-23.374 16.652-47.149 16.652-71.235v-151.73z"/></svg>
